src/pos-icons/snowflake-alert.svg

<svg height="24" viewBox="0 0 24 24" width="24" xmlns="http://www.w3.org/2000/svg"><path d="m16.46 9.41-3.46-2.03v-2.26l1.71-1.71-1.42-1.41-1.29 1.29-1.29-1.29-1.42 1.41 1.71 1.71v2.26l-2.5 1.44-2-1.13-.58-2.33-1.92.52.47 1.77-1.77.47.52 1.93 2.33-.62 2 1.13v2.89l-2 1.13-2.33-.62-.52 1.93 1.77.47-.47 1.76 1.93.52.62-2.33 2-1.13 2.45 1.44v2.26l-1.71 1.71 1.42 1.41 1.29-1.29 1.29 1.29 1.41-1.41-1.7-1.71v-2.26l3.46-2.01m-6.96-4.05 2.5-1.45 2.5 1.45v2.88l-2.5 1.45-2.5-1.45m9.5-.44v-6h2v6zm0 4v-2h2v2z"/></svg>

<?xml version="1.0" encoding="UTF-8"?><!DOCTYPE svg PUBLIC "-//W3C//DTD SVG 1.1//EN" "http://www.w3.org/Graphics/SVG/1.1/DTD/svg11.dtd"><svg xmlns="http://www.w3.org/2000/svg" xmlns:xlink="http://www.w3.org/1999/xlink" version="1.1" id="mdi-snowflake-alert" width="24" height="24" viewBox="0 0 24 24"><path d="M16.46,9.41L13,7.38V5.12L14.71,3.41L13.29,2L12,3.29L10.71,2L9.29,3.41L11,5.12V7.38L8.5,8.82L6.5,7.69L5.92,5.36L4,5.88L4.47,7.65L2.7,8.12L3.22,10.05L5.55,9.43L7.55,10.56V13.45L5.55,14.58L3.22,13.96L2.7,15.89L4.47,16.36L4,18.12L5.93,18.64L6.55,16.31L8.55,15.18L11,16.62V18.88L9.29,20.59L10.71,22L12,20.71L13.29,22L14.7,20.59L13,18.88V16.62L16.46,14.61M9.5,10.56L12,9.11L14.5,10.56V13.44L12,14.89L9.5,13.44M19,13V7H21V13H19M19,17V15H21V17H19Z" /></svg>
